!!!COM: Music21
!!!OTL: march_Irene-Meldrums-Welcome-To-Bon-Accord
!!!OMV: march_Irene-Meldrums-Welcome-To-Bon-Accord
**kern
*clefG2
*k[f#c#]
*D:
*M4/4
=1
8.aaL
16ggJk
8.ff#L
16eeJk
16ddKL
8.ff#J
4a
=
8.aL
16ddJk
16bKL
8.aJ
8.ddL
16aJk
4b
=
8.aL
16bJk
8.ddL
16eeJk
16ff#KL
8.ddJ
8.aaL
16ff#Jk
=
16eeKL
8.ddJ
4ff#
4ee
4ee
=
8.aaL
16ggJk
8.ff#L
16eeJk
16ddKL
8.ff#J
4a
!!linebreak:original
=
8.aL
16ddJk
16bKL
8.aJ
8.ddL
16aJk
4b
=
8.aL
16bJk
8.ddL
16aJk
4dd
8.eeL
16ff#Jk
=
16aaKL
8.eeJ
4ff#
4dd
8.ddL
16eeJk
=||
*M4/4
8.aaL
16ggJk
8.ff#L
16eeJk
16ddKL
8.ff#J
4a
!!linebreak:original
=
8.aL
16ddJk
16bKL
8.aJ
8.ddL
16aJk
4b
=
8.aL
16bJk
8.ddL
16eeJk
16ff#KL
8.ddJ
8.aaL
16ff#Jk
=
16eeKL
8.ddJ
4ff#
4ee
4ee
=
8.aaL
16ggJk
8.ff#L
16eeJk
16ddKL
8.ff#J
4a
=
8.aL
16ddJk
16bKL
8.aJ
8.ddL
16aJk
4b
!!linebreak:original
=
8.aL
16bJk
8.ddL
16aJk
4dd
8.eeL
16ff#Jk
=
16aaKL
8.eeJ
4ff#
4dd
8.ddL
16eeJk
=||
8.ff#L
16ggJk
8.aaL
16ggJk
16ff#KL
8.aaJ
8.ff#L
16eeJk
=
8.ddL
16eeJk
16ff#KL
8.aaJ
16ff#KL
8.aJ
4b
=
8.aL
16bJk
8.ddL
16eeJk
16ff#KL
8.ddJ
8.aaL
16ff#Jk
!!linebreak:original
=
16eeKL
8.ddJ
4ff#
4ee
4ee
=
8.ff#L
16ggJk
8.aaL
16ggJk
16ff#KL
8.aaJ
8.ff#L
16eeJk
=
8.ddL
16eeJk
16ff#KL
8.aaJ
16ff#KL
8.aJ
4b
=
8.aL
16bJk
8.ddL
16aJk
4dd
8.eeL
16ff#Jk
=
16aaKL
8.eeJ
4ff#
4dd
8.ddL
16eeJk
!!linebreak:original
=
8.ff#L
16ggJk
8.aaL
16ggJk
16ff#KL
8.aaJ
8.ff#L
16eeJk
=
8.ddL
16eeJk
16ff#KL
8.aaJ
16ff#KL
8.aJ
4b
=
8.aL
16bJk
8.ddL
16eeJk
16ff#KL
8.ddJ
8.aaL
16ff#Jk
=
16eeKL
8.ddJ
4ff#
4ee
4ee
=
8.aaL
16ggJk
8.ff#L
16eeJk
16ddKL
8.ff#J
4a
!!linebreak:original
=
8.aL
16ddJk
16bKL
8.aJ
8.ddL
16aJk
4b
=
8.aL
16bJk
8.ddL
16aJk
4dd
8.eeL
16ff#Jk
=
16aaKL
8.eeJ
4ff#
4dd
4dd
=||
4ff#
4a
8.aL
16bJk
8.aL
16bJk
=
8.ddL
16aJk
16bKL
8.eeJ
16ddKL
8.aJ
4b
!!linebreak:original
=
8.aL
16bJk
8.ddL
16eeJk
16ff#KL
8.ddJ
8.aaL
16ff#Jk
=
16eeKL
8.ddJ
4ff#
4ee
4ee
=
4ff#
4a
8.aL
16bJk
8.aL
16bJk
=
8.ddL
16aJk
16bKL
8.eeJ
16ddKL
8.aJ
4b
=
8.aL
16bJk
8.ddL
16aJk
4dd
8.eeL
16ff#Jk
!!linebreak:original
=
16aaKL
8.eeJ
4ff#
4dd
8.ddL
16eeJk
=||
4ff#
4a
8.aL
16bJk
8.aL
16bJk
=
8.ddL
16aJk
16bKL
8.eeJ
16ddKL
8.aJ
4b
=
8.aL
16bJk
8.ddL
16eeJk
16ff#KL
8.ddJ
8.aaL
16ff#Jk
=
16eeKL
8.ddJ
4ff#
4ee
4ee
!!linebreak:original
=
4ff#
4a
8.aL
16bJk
8.aL
16bJk
=
8.ddL
16aJk
16bKL
8.eeJ
16ddKL
8.aJ
4b
=
8.aL
16bJk
8.ddL
16aJk
4dd
8.eeL
16ff#Jk
=
16aaKL
8.eeJ
4ff#
4dd
8.ddL
16eeJk
=||
8.ff#L
16ggJk
8.aaL
16ggJk
16ff#KL
8.aaJ
8.ggL
16ff#Jk
!!pagebreak:original
=
16eeKL
8.ggJ
8.ff#L
16eeJk
16ddKL
8.ff#J
8.eeL
16aJk
=
16cc#KL
8.eeJ
8.ddL
16eeJk
16ff#KL
8.ddJ
8.aaL
16ff#Jk
=
16eeKL
8.ddJ
4ff#
4ee
4ee
=
8.ff#L
16ggJk
8.aaL
16ggJk
16ff#KL
8.aaJ
8.ggL
16ff#Jk
!!linebreak:original
=
16eeKL
8.ggJ
8.ff#L
16eeJk
16ddKL
8.ff#J
8.eeL
16aJk
=
16cc#KL
8.eeJ
8.ddL
16aJk
4dd
8.eeL
16ff#Jk
=
16aaKL
8.eeJ
4ff#
4dd
8.ddL
16eeJk
=
8.ff#L
16ggJk
8.aaL
16ggJk
16ff#KL
8.aaJ
8.ggL
16ff#Jk
!!linebreak:original
=
16eeKL
8.ggJ
8.ff#L
16eeJk
16ddKL
8.ff#J
8.eeL
16aJk
=
16cc#KL
8.eeJ
8.ddL
16eeJk
16ff#KL
8.ddJ
8.aaL
16ff#Jk
=
16eeKL
8.ddJ
4ff#
4ee
4ee
=
*-
